symbols/web/login/materialsymbolsoutlined/login_gradN25_24px.svg

<svg xmlns="http://www.w3.org/2000/svg" height="24" width="24"><path d="M11.975 20.875V19h6.9V5.125h-6.9V3.25h6.9q.775 0 1.325.55.55.55.55 1.325V19q0 .775-.55 1.325-.55.55-1.325.55Zm-1.825-4.05L8.85 15.5l2.5-2.5h-8.1v-1.875h8.1l-2.5-2.5 1.3-1.35 4.775 4.775Z"/></svg>

<svg xmlns="http://www.w3.org/2000/svg" height="24" width="24"><path d="M10.15 16.825 8.85 15.5 11.35 13H3.25V11.125H11.35L8.85 8.625L10.15 7.275L14.925 12.05ZM11.975 20.875V19H18.875Q18.875 19 18.875 19Q18.875 19 18.875 19V5.125Q18.875 5.125 18.875 5.125Q18.875 5.125 18.875 5.125H11.975V3.25H18.875Q19.65 3.25 20.2 3.8Q20.75 4.35 20.75 5.125V19Q20.75 19.775 20.2 20.325Q19.65 20.875 18.875 20.875Z"/></svg>
